X: 1027
T: Aloe Vera, The
R: reel
M: 4/4
K: Gmajor
|:d2 Bd GdBd|cA ~A2 FcAc|d2 Bd gdBd|1 cAFA G3 ^c:|2 cAFA G3 g||
dggd bgag|fdde fdaf|gbdg bgag|fdef g3 f||
g2 dg bgag|fd ~d2 fgaf|g2 d/e/=f =fedc|BdcA G3 ^c||

